!!!OTL: 6. Dobranoch
!!!Genre:	Dobranoch
!!!Mode:	Minor
!!!Listening/dance:	listening
!!!One_Mode:	no
!!!Orig_tonic: C
**kern
*thru
*clefG2
*k[b-e-]
*B-:
!LO:TX:a:i:t=Bb-major
12fL
12en
12fJ
=18!|:
4b-
4b-
8b-L
8ccJ
=19
4dd
4dd
8ddL
8ee-J
=20
2ff
4gg
=21
2ff
4f
=22
2ff
8qff/
8ee-L
8ddJ
=23
4cc
4dd
16ee-LL
16ddJ
8ccJ
=24
2.b-
*>B1
=25
2B-
4f
*>B
4b-
4b-
8b-L
8ccJ
=19
4dd
4dd
8ddL
8ee-J
=20
2ff
4gg
=21
2ff
4f
=22
2ff
8qff/
8ee-L
8ddJ
=23
4cc
4dd
16ee-LL
16ddJ
8ccJ
=24
2.b-
*>B2
=26:|!
2B-
*>C
!!!End-Modulation
*-
